src/16/actions/child2category.svg

<svg xmlns="http://www.w3.org/2000/svg" viewBox="0 0 16 16"><path d="M2 2v12h7v-1H3V5h10v3h1V2h-2v2h-2V2H6v2H4V2z" fill="currentColor" color="#5d656b"/><path d="M10 9v5h5V9h-1v1h-1V9h-1v1h-1V9h-1zm1 2h3v2h-3v-2z" fill="currentColor" color="#3daee9"/></svg>

<svg xmlns="http://www.w3.org/2000/svg" viewBox="0 0 16 16">
  <defs id="defs3051">
    <style type="text/css" id="current-color-scheme">
      .ColorScheme-Text {
        color:#5d656b;
      }
      .ColorScheme-Highlight {
        color:#3daee9;
      }
      </style>
  </defs>
  <path 
        style="fill:currentColor;fill-opacity:1;stroke:none"
        d="m 2,2 0,12 7,0 0,-1 -6,0 0,-8 10,0 0,3 1,0 0,-6 -2,0 0,2 L 10,4 10,2 6,2 6,4 4,4 4,2 Z"
        class="ColorScheme-Text"
        />
  <path 
        style="fill:currentColor;fill-opacity:1;stroke:none"
        d="M 10 9 L 10 10 L 10 14 L 15 14 L 15 9 L 14 9 L 14 10 L 13 10 L 13 9 L 12 9 L 12 10 L 11 10 L 11 9 L 10 9 z M 11 11 L 14 11 L 14 13 L 11 13 L 11 11 z "
        class="ColorScheme-Highlight"
        />
</svg>
